X: 10802
T: HONOURABLE RAMSAY MAULE'S FAVOURITE
C: Nathaniel Gow
Q: "Slow"
%R: air, jig, waltz
B: W. Hamilton "Universal Tune-Book" Vol. 1 Glasgow 1844 p.80 #2
S: http://imslp.org/wiki/Hamilton's_Universal_Tune-Book_(Various)
Z: 2016 John Chambers <jc:trillian.mit.edu>
M: 6/8
L: 1/8
K: Em
%%slurgraces yes
%%graceslurs yes
% - - - - - - - - - - - - - - - - - - - - - - - - -
F |\
TG>AB E2E | E>B,E TE2F | TG>AB (cA)F | (BG)E (AF)D |\
TG>AB E2E | (E<B,)E  E>FG/A/ | Beg fb^d | e3 E2 :|\
f |\
(g>a)b e2e | Tg2e eBe | e>fg/a/ bge | bge afd |
Tg>ab e2e | Tg2f eBA | TG>FE B2^d | e2E E2f |\
Tg>ab e2e | {f}g2f (eB)G | EGB (GB)e | (eB)G AFD |\
TG>AB TE2E | cAG FAc | TB>AG AGF | GEE E2 |]
% - - - - - - - - - - - - - - - - - - - - - - - - -

%%sep 1 1 500
%%sep 1 1 500

